X:1
T:Title
L:1/8
M:2/2
K:C
V:1 treble nm="Grand Piano"
V:1
 z2 CD C2 E2 | D2 C2 D2 C2 | z2 C2 C2 D2 | C2 D2 E4 | z2 E2 D2 E2 | D2 G2 G4 | G2 A2- A G2 F | %7
 E2 D2 E3 D |[M:2/4] C4 | A2 B2 |[M:4/4] c2 A2 B2 A2 | c4 A2 B2 | c2 A2 B2 AB | c4 d2 c2 | %14
 B2 c2 B2 A2 | B2 A2 G2 A2 | G2 FF E2 D2 | E4 A4 | B4 c4- | c2 cA G4 | z2 A2 G2 F2 | E2 D2 E3 D | %22
 C2 z2 z4 |] %23

